X: 1
T: String Quartet in D Major opus 33 no 6 mvt 2
C: Franz Joseph Haydn
%%abc-version 2.0
%%abcx-abcm2ps-target-version 5.9.1 (29 Sep 2008)
%%abc-creator hum2abc beta
%%abcx-conversion-date 2021/02/14 14:38:26
%%abc-copyright Copyright (c) 1994, 2000 Center for Computer Assisted Research in the Humanities
%%abc-edited-by Frances Bennion
%%abcx-initial-encoding-date 1997/04/15
%%gracespace 0 6 6
%%humdrum-veritas 1104138290
%%humdrum-veritas-data 2958919313
%%linebreak <none>
%%barnumbers 0
L: 1/8
M: 4/4
N: Derived from op33n6-02.krn
Q: "Andante"
%%staves [1 2 3 4]
V: 1
V: 2
V: 3 clef=alto
V: 4 clef=bass
K: F
[V:1]a8- [I:setbarnb2] |
[V:2]zd dd df ed |
[V:3]zF FF FA GF |
[V:4]D,2 z2 D2 z2 |
[V:1]a8- |
[V:2]d7/ e//d// ^cc c/d/d/e/ |
[V:3]G4- GG GF |
[V:4]E4- EE ED |
[V:1]a8- |
[V:2]ee ee eg fe |
[V:3]EG GG GB AG |
[V:4]^C2 z2 C2 z2 |
[V:1]a8- |
[V:2]e7/ f//e// dd d/>f/e3//g// |
[V:3]G7/ A//G// FF F/>A/G3//B// |
[V:4]D4 D,4 |
[V:1]a4- aa aa |
[V:2]ff ff z_e ee |
[V:3]AA AA z^F FF |
[V:4]D4 C4 |
[V:1]a4- a/d'/c'/b/ a/g/^f/g/ |
[V:2]_e4 d4 |
[V:3]^F4 G4 |
[V:4]B,8 |
[V:1]zf ff f3/g//f// ed |
[V:2]D8 |
[V:3]^G8 |
[V:4]=B,8 |
[V:1]d7/ e//d/ <^c/d/<=B/c/ <A/B/<^G/B// |
[V:2]F4 ED ^CD |
[V:3]A4 GF EF |
[V:4]A,8 |
[V:1]A2 >>^G2 A>G A/>G/A3//G// |
[V:2]^C2 >>D2 C>D C/>D/C3//D// |
[V:3]E2 >>F2 E>F E/>F/E3//F// |
[V:4]A,8 |
[V:1]A7/- A//B// B7/ A//B// |
[V:2]^C4 =C4 |
[V:3]E4 E4 |
[V:4]A,4 G,4 |
[V:1]c4- c/a/g/f/ e/f/e/f/ |
[V:2]A,A AA zc BA |
[V:3][FA,]F FF zA GF |
[V:4]F,2 z2 F,2 z2 |
[V:1]f7/ g//f// ee e/>g/f3//a// |
[V:2]zB BB zB BA |
[V:3]zG GG zG GF |
[V:4]C,2 z2 C,2 z2 |
[V:1]g4- g/e/b/g <d'c'/ |
[V:2]GB BB zB BB |
[V:3]EE EE zE EE |
[V:4]C,2 z2 C,2 z2 |
[V:1]c'2 >b2 a2 c'2 |
[V:2]zB BG zA AA |
[V:3]zE EE zF FF |
[V:4]F,2 z2 F,2 z2 |
[V:1]f'4 f'/e'/f'/e'/ f'/e'/d'/^c'/ |
[V:2]zc cc zc cf |
[V:3]zF FF zF FF |
[V:4]A,2 z2 A,2 z2 |
[V:1]d'4- d'/^c'/d'/a/ b/a/b/^f/ |
[V:2]zd dd zd dd |
[V:3]zF FF z^F FF |
[V:4]B,2 z2 B,2 z2 |
[V:1]g2- g/a/b/c'/ d'e' f'a/f/ |
[V:2]zd dd zB zA |
[V:3]zG GG zG zF |
[V:4]B,2 z2 B,z =B,z |
[V:1]c'8- |
[V:2]Ge ee eg fe |
[V:3]EG GG GB AG |
[V:4]C2 z2 C2 z2 |
[V:1]c'8- |
[V:2]zf ff fa g^f |
[V:3]zA AA Ac BA |
[V:4]C2 z2 C2 z2 |
[V:1]c'8- |
[V:2]zg gg gb ag |
[V:3]zB BB Bd cB |
[V:4]E8 |
[V:1]c'_e' e'e' e'g' f'e' |
[V:2]a8 |
[V:3]Ac cc c_e dc |
[V:4]F8 |
[V:1]d'2- d'/^c'/d'/c'/ d'/e'/f'/c'/ d'/a/b/g/ |
[V:2]bf ff zd dd |
[V:3]Bd dd zB BB |
[V:4]B,2 z2 B,2 z2 |
[V:1]f2- f/c'/b/a/ g4 |
[V:2]cf ff ze ee |
[V:3]AA AA zB BB |
[V:4]C2 z2 C,2 z2 |
[V:1]f8- |
[V:2]f2 z6 |
[V:3]AF FF FA GF |
[V:4]F,2 z2 F,2 z2 |
[V:1]f4 e4 |
[V:2]zB BB Bd cB |
[V:3]G8 |
[V:4]C8 |
[V:1]_e4- eg fe |
[V:2]B4 A4 |
[V:3]zc cc c_e dc |
[V:4]F8 |
[V:1]_e4 d4- |
[V:2]A6 d2- |
[V:3]c8- |
[V:4]z^F FF FA GF |
[V:1]dg gg gb g_e |
[V:2]d4 _e4 |
[V:3]c4 B4 |
[V:4]G8 |
[V:1]d4 ^c4 |
[V:2]B4 BE FG |
[V:3]zG GG GB AG |
[V:4]zE EE EG FE |
[V:1]zd dd df ed |
[V:2]A4 ^G4 |
[V:3]G4 F4 |
[V:4]D8 |
[V:1]a8- |
[V:2]zE EE EB AG |
[V:3]z^C CC CG FE |
[V:4]A,4 z4 |
[V:1]a8- |
[V:2]Fd dd df ed |
[V:3]DF FF FA GF |
[V:4]D2 z2 D2 z2 |
[V:1]a8- |
[V:2]d7/ e//d// ^cc c/d/d/e/ |
[V:3]G4- GG GF |
[V:4]E4- EE ED |
[V:1]a8- |
[V:2]ee ee eg fe |
[V:3]EG GG GB AG |
[V:4]^C2 z2 C2 z2 |
[V:1]a8- |
[V:2]e7/ f//e// dd d/>f/e3//g// |
[V:3]G7/ A//G// FF F/>A/G3//B// |
[V:4]D8 |
[V:1]a4- aa aa |
[V:2]ff ff z_e ee |
[V:3]AA AA z^F FF |
[V:4]D4 C4 |
[V:1]a4- a/d'/c'/b/ a/g/^f/g/ |
[V:2]_e4 d4 |
[V:3]^F4 G4 |
[V:4]B,8 |
[V:1]zf ff f3/g//f// ed |
[V:2]D8 |
[V:3]^G8 |
[V:4]=B,8 |
[V:1]d7/ e//d/ <^c/d/<=B/c/ <A/B/<^G/B// |
[V:2]F4 ED ^CD |
[V:3]A4 GF EF |
[V:4]A,8- |
[V:1]A2 >>^G2 A>G A/>G/A3//G// |
[V:2]^CC CC CC CC |
[V:3]EE EE EE EE |
[V:4]A,4 G,4 |
[V:1]A2 >>^G2 A/>G/A/>G/ A/>B/c3//c// |
[V:2]CC CC CC AA |
[V:3]EE EE DD DD |
[V:4]^F,8 |
[V:1]c4 B4 |
[V:2]A4 G4- |
[V:3]D8 |
[V:4]G,2 G,/>^F,/G,/>F,/ G,/>A,/B,/>A,/ G,/>=F,/E,3//D,// |
[V:1]A/>=B/^c/>d/ e/>f/g/>e/ f4- |
[V:2]G4 F4 |
[V:3]E4 D4- |
[V:4]^C,4 D,/>E,/F,/>E,/ D,/>=C,/B,,3//A,,// |
[V:1]fd' d'd' d'f ff |
[V:2]Ff ff fd dd |
[V:3]D2 z2 >D2 FD |
[V:4]^G,,4- G,,G,, G,,G,, |
[V:1]f4 e4 |
[V:2]d2 z2 ^c4 |
[V:3]A,2 z2 G4 |
[V:4]A,,8 |
[V:1]d8- |
[V:2]zA AA Ac BA |
[V:3]z^F FF FA GF |
[V:4]D,2 z2 D,2 z2 |
[V:1]d8- |
[V:2]zG GG GB AG |
[V:3]zB, B,B, B,D CB, |
[V:4]D,2 z2 D,2 z2 |
[V:1]d2 >>^c2 d>c d3/c/ |
[V:2]^F2 >>G2 F>G F3/G/ |
[V:3]A,2 >>B,2 A,>B, A,3/B,/ |
[V:4]D,,8 |
[V:1]d8- |
[V:2]^F8- |
[V:3]A,8- |
[V:4]D,,2 >>^C,,2 D,,>C,, D,,3/C,,/ |
[V:1]d8 |]
[V:2]F8 |]
[V:3]A,8 |]
[V:4]D,,8 |]

